src/24x24/places/folder-gruvbox-original-blue-print.svg

<?xml version="1.0" encoding="UTF-8"?>
<svg width="24" height="24" version="1" xmlns="http://www.w3.org/2000/svg">
 <rect x="2" y="9.5" width="20" height="12" rx="1" ry="1" opacity=".2"/>
 <path d="m2 17c0 0.554 0.446 1 1 1h18c0.554 0 1-0.446 1-1v-11c0-0.554-0.446-1-1-1h-9c-1.5 0-2-2-3.5-2h-5.5c-0.554 0-1 0.446-1 1" fill="#076678"/>
 <rect x="2" y="8.5" width="20" height="12" rx="1" ry="1" opacity=".2"/>
 <rect x="4" y="7" width="16" height="8" rx="1" ry="1" fill="#d3d5b8"/>
 <rect x="2" y="9" width="20" height="12" rx="1" ry="1" fill="#83a598"/>
 <path d="m3 3c-0.554 0-1 0.446-1 1v0.5c0-0.554 0.446-1 1-1h5.5c1.5 0 2 2 3.5 2h9c0.554 0 1 0.446 1 1v-0.5c0-0.554-0.446-1-1-1h-9c-1.5 0-2-2-3.5-2z" fill="#d3d5b8" opacity=".1"/>
 <path d="m9 11v1.5h6v-1.5zm-0.5 2c-0.25 0-0.5 0.25-0.5 0.5v2c0 0.25 0.25 0.5 0.5 0.5h0.5v2h6v-2h0.5c0.25 0 0.5-0.25 0.5-0.5v-2c0-0.25-0.25-0.5-0.5-0.5zm0.5 2h6v0.5h-6z" fill="#2e3b3b"/>
</svg>

<svg xmlns="http://www.w3.org/2000/svg" width="24" height="24" version="1">
 <rect style="opacity:0.2" width="20" height="12" x="2" y="9.5" rx="1" ry="1"/>
 <path style="fill:#076678" d="M 2,17 C 2,17.554 2.446,18 3,18 H 21 C 21.554,18 22,17.554 22,17 V 6 C 22,5.446 21.554,5 21,5 H 12 C 10.5,5 10,3 8.5,3 H 3 C 2.446,3 2,3.446 2,4"/>
 <rect style="opacity:0.2" width="20" height="12" x="2" y="8.5" rx="1" ry="1"/>
 <rect style="fill:#d3d5b8" width="16" height="8" x="4" y="7" rx="1" ry="1"/>
 <rect style="fill:#83a598" width="20" height="12" x="2" y="9" rx="1" ry="1"/>
 <path style="opacity:0.1;fill:#d3d5b8" d="M 3,3 C 2.446,3 2,3.446 2,4 V 4.5 C 2,3.946 2.446,3.5 3,3.5 H 8.5 C 10,3.5 10.5,5.5 12,5.5 H 21 C 21.554,5.5 22,5.946 22,6.5 V 6 C 22,5.446 21.554,5 21,5 H 12 C 10.5,5 10,3 8.5,3 Z"/>
 <path style="fill:#2e3b3b" d="M 9,11 V 12.5 H 15 V 11 Z M 8.5,13 C 8.25,13 8,13.25 8,13.5 V 15.5 C 8,15.75 8.25,16 8.5,16 H 9 V 18 H 15 V 16 H 15.5 C 15.75,16 16,15.75 16,15.5 V 13.5 C 16,13.25 15.75,13 15.5,13 Z M 9,15 H 15 V 15.5 H 9 Z"/>
</svg>
